X: 28700
T: My Dancing Bride
R: hornpipe
M: 4/4
K: Dmajor
fe|:d2D2 D3E|FDFA defd|e2E2 E3F|G2FG E4|
f2ed edc2|dgfe dcBA|B2EF GBAG|1 F2D2 D2fe:|2 F2D2 D4||
|:f2dc d3e|fdfg a2gf|g2ed e3f|gfga b2ag|
f2ed edc2|dgfe dcBA|B2EF GBAG|1 F2D2 D4:|2 F2D2 D2||

